X: 13924
T: Foxhunter, The
R: slip jig
M: 9/8
K: Dmajor
B3 BcA B2G|BAG BdB ABc|BAG BdB c2e|dBG GDG G2d|
Bc/B/B BcA B2G|BAG BdB ABc|BAG BdB c2e|dBG GAG G3||
g3 edc Bcd|ecA ABA ABd|g3 edc Bcd|gdB GAG GBd|
g3 edc Bcd|ecA ABA A2B|def gfe def|g3 agf g3||

